packages/match-icons/twilio/svg/lego.svg

<svg fill="none" height="32" viewBox="0 0 32 32" width="32" xmlns="http://www.w3.org/2000/svg" xmlns:xlink="http://www.w3.org/1999/xlink"><clipPath id="a"><path d="m0 0h32v32h-32z"/></clipPath><g clip-path="url(#a)" stroke="#394762" stroke-linecap="round" stroke-linejoin="round" stroke-width="1.7"><path d="m12 12.6667c0 .5304.4214 1.0391 1.1716 1.4142.7501.3751 1.7675.5858 2.8284.5858s2.0783-.2107 2.8284-.5858c.7502-.3751 1.1716-.8838 1.1716-1.4142s-.4214-1.0392-1.1716-1.4142c-.7501-.3751-1.7675-.5858-2.8284-.5858s-2.0783.2107-2.8284.5858c-.7502.375-1.1716.8838-1.1716 1.4142z"/><path d="m12 4.66669c0 .53043.4214 1.03914 1.1716 1.41421.7501.37507 1.7675.58579 2.8284.58579s2.0783-.21072 2.8284-.58579c.7502-.37507 1.1716-.88378 1.1716-1.41421 0-.53044-.4214-1.03914-1.1716-1.41422-.7501-.37507-1.7675-.58578-2.8284-.58578s-2.0783.21071-2.8284.58578c-.7502.37508-1.1716.88378-1.1716 1.41422z"/><path d="m21.3333 8.66669c0 .53043.4215 1.03914 1.1716 1.41421.7501.3751 1.7676.5858 2.8284.5858 1.0609 0 2.0783-.2107 2.8285-.5858.7501-.37507 1.1715-.88378 1.1715-1.41421 0-.53044-.4214-1.03914-1.1715-1.41422-.7502-.37507-1.7676-.58578-2.8285-.58578-1.0608 0-2.0783.21071-2.8284.58578-.7501.37508-1.1716.88378-1.1716 1.41422z"/><path d="m3.33333 8.66669c0 .26264.10346.52271.30448.76536.20102.24266.49566.46313.86709.64885.37144.1857.81239.333 1.29769.4335.48531.1006 1.00545.1523 1.53074.1523s1.04543-.0517 1.53073-.1523c.4853-.1005.92626-.2478 1.29774-.4335.3714-.18572.666-.40619.867-.64885.2011-.24265.3045-.50272.3045-.76536 0-.26265-.1034-.52272-.3045-.76537-.201-.24265-.4956-.46313-.867-.64885-.37148-.18571-.81244-.33303-1.29774-.43354s-1.00544-.15224-1.53073-.15224-1.04543.05173-1.53074.15224c-.4853.10051-.92625.24783-1.29769.43354-.37143.18572-.66607.4062-.86709.64885s-.30448.50272-.30448.76537z"/><path d="m12.9827 5.9787-2.8734 1.24933"/><path d="m22.2587 7.38802-3.244-1.41066"/><path d="m4.09866 9.84137-2.632 1.14403c-.23787.1038-.44028.2748-.582386.492-.142107.2171-.217736.4711-.21761.7306v8.9334c.000071.2559.073778.5063.212323.7215.138543.2151.336073.3859.569013.4918l13.352 6.072c.167.0762.348.117.5315.12.1836.003.3658-.032.5352-.1027l14.644-6.1026c.2428-.1013.4503-.2723.5962-.4913s.2238-.4762.2238-.7394v-8.9027c.0001-.2595-.0755-.5135-.2176-.7306-.1422-.2172-.3446-.3882-.5824-.492l-2.264-.9854"/><path d="m15.3333 18v10.544"/><path d="m31.0867 11.436-15.7534 6.564"/><path d="m15.3333 18-14.425303-6.5573"/></g></svg>

<svg width="32" height="32" viewBox="0 0 32 32" fill="none" xmlns="http://www.w3.org/2000/svg">
<g clip-path="url(#clip0)">
<path d="M12 12.6667C12 13.1971 12.4214 13.7058 13.1716 14.0809C13.9217 14.456 14.9391 14.6667 16 14.6667C17.0609 14.6667 18.0783 14.456 18.8284 14.0809C19.5786 13.7058 20 13.1971 20 12.6667C20 12.1363 19.5786 11.6275 18.8284 11.2525C18.0783 10.8774 17.0609 10.6667 16 10.6667C14.9391 10.6667 13.9217 10.8774 13.1716 11.2525C12.4214 11.6275 12 12.1363 12 12.6667Z" stroke="#394762" stroke-width="1.7" stroke-linecap="round" stroke-linejoin="round"/>
<path d="M12 4.66669C12 5.19712 12.4214 5.70583 13.1716 6.0809C13.9217 6.45597 14.9391 6.66669 16 6.66669C17.0609 6.66669 18.0783 6.45597 18.8284 6.0809C19.5786 5.70583 20 5.19712 20 4.66669C20 4.13625 19.5786 3.62755 18.8284 3.25247C18.0783 2.8774 17.0609 2.66669 16 2.66669C14.9391 2.66669 13.9217 2.8774 13.1716 3.25247C12.4214 3.62755 12 4.13625 12 4.66669V4.66669Z" stroke="#394762" stroke-width="1.7" stroke-linecap="round" stroke-linejoin="round"/>
<path d="M21.3333 8.66669C21.3333 9.19712 21.7548 9.70583 22.5049 10.0809C23.255 10.456 24.2725 10.6667 25.3333 10.6667C26.3942 10.6667 27.4116 10.456 28.1618 10.0809C28.9119 9.70583 29.3333 9.19712 29.3333 8.66669C29.3333 8.13625 28.9119 7.62755 28.1618 7.25247C27.4116 6.8774 26.3942 6.66669 25.3333 6.66669C24.2725 6.66669 23.255 6.8774 22.5049 7.25247C21.7548 7.62755 21.3333 8.13625 21.3333 8.66669V8.66669Z" stroke="#394762" stroke-width="1.7" stroke-linecap="round" stroke-linejoin="round"/>
<path d="M3.33333 8.66669C3.33333 8.92933 3.43679 9.1894 3.63781 9.43205C3.83883 9.67471 4.13347 9.89518 4.5049 10.0809C4.87634 10.2666 5.31729 10.4139 5.80259 10.5144C6.2879 10.615 6.80804 10.6667 7.33333 10.6667C7.85862 10.6667 8.37876 10.615 8.86406 10.5144C9.34936 10.4139 9.79032 10.2666 10.1618 10.0809C10.5332 9.89518 10.8278 9.67471 11.0288 9.43205C11.2299 9.1894 11.3333 8.92933 11.3333 8.66669C11.3333 8.40404 11.2299 8.14397 11.0288 7.90132C10.8278 7.65867 10.5332 7.43819 10.1618 7.25247C9.79032 7.06676 9.34936 6.91944 8.86406 6.81893C8.37876 6.71842 7.85862 6.66669 7.33333 6.66669C6.80804 6.66669 6.2879 6.71842 5.80259 6.81893C5.31729 6.91944 4.87634 7.06676 4.5049 7.25247C4.13347 7.43819 3.83883 7.65867 3.63781 7.90132C3.43679 8.14397 3.33333 8.40404 3.33333 8.66669V8.66669Z" stroke="#394762" stroke-width="1.7" stroke-linecap="round" stroke-linejoin="round"/>
<path d="M12.9827 5.9787L10.1093 7.22803" stroke="#394762" stroke-width="1.7" stroke-linecap="round" stroke-linejoin="round"/>
<path d="M22.2587 7.38802L19.0147 5.97736" stroke="#394762" stroke-width="1.7" stroke-linecap="round" stroke-linejoin="round"/>
<path d="M4.09866 9.84137L1.46666 10.9854C1.22879 11.0892 1.02638 11.2602 0.884274 11.4774C0.742167 11.6945 0.666538 11.9485 0.666664 12.208V21.1414C0.666735 21.3973 0.740442 21.6477 0.878987 21.8629C1.01753 22.078 1.21506 22.2488 1.448 22.3547L14.8 28.4267C14.967 28.5029 15.148 28.5437 15.3315 28.5467C15.5151 28.5497 15.6973 28.5147 15.8667 28.444L30.5107 22.3414C30.7535 22.2401 30.961 22.0691 31.1069 21.8501C31.2528 21.6311 31.3307 21.3739 31.3307 21.1107V12.208C31.3308 11.9485 31.2552 11.6945 31.1131 11.4774C30.9709 11.2602 30.7685 11.0892 30.5307 10.9854L28.2667 10" stroke="#394762" stroke-width="1.7" stroke-linecap="round" stroke-linejoin="round"/>
<path d="M15.3333 18V28.544" stroke="#394762" stroke-width="1.7" stroke-linecap="round" stroke-linejoin="round"/>
<path d="M31.0867 11.436L15.3333 18" stroke="#394762" stroke-width="1.7" stroke-linecap="round" stroke-linejoin="round"/>
<path d="M15.3333 18L0.907997 11.4427" stroke="#394762" stroke-width="1.7" stroke-linecap="round" stroke-linejoin="round"/>
</g>
<defs>
<clipPath id="clip0">
<rect width="32" height="32" fill="white"/>
</clipPath>
</defs>
</svg>
